X:1
T:Title
%%score { ( 1 4 ) | ( 2 3 ) }
L:1/8
M:6/8
K:Eb
V:1 treble nm="Grand Piano"
V:4 treble 
V:2 treble 
V:3 treble 
V:1
 z3[Q:1/4=92] B=AB | [Ge]3 dce | [GB]3- [GB] G2 | [DB]3 AcB |[M:3/8] [EG]3 | B=AB | %6
[M:3/4] [Ge]3 d fe | [Ac]4 [C_Ge]2 | [Ge]3 B [B,EG][DF] | %9
[M:7/16] [G,B,E]/-[G,B,E]/-[G,B,E]/-[G,B,E]-<[G,B,E] |[M:3/8] [DF][DF][EG] | %11
[M:3/4] [FA]3 [GB] [Ac][Ad] | [Ge]4 [GB]2 | c3 =B ce |[M:3/8] B3 | GGA |[M:3/4] B3 G z/ G,/[DF] | %17
 z2 z2 [Ec]2[K:bass] | [EB]3 [EG] [DG][DF] |[M:9/16] [B,E]4- [B,E]/ |] %20
V:2
 z3 G_G=G | E,,B,,E,[K:treble] BA_G | E,,B,,E,- E, E2 | B,,,F,,B,, DED |[M:3/8] E,,B,,E, | G_G=G | %6
[M:3/4][K:bass] E,,B,, E,[K:treble]A Ac | A,,E, A,2 =A,,2 | B,,E, B,G z A, |[M:7/16] E,B,,E,,3/2 | %10
[M:3/8] [B,,B,][B,,B,][B,,B,] |[M:3/4] [B,,B,]3 [B,,B,] [B,,B,][B,,B,] | [E,B,]4 [E,E]2 | %13
 [A,EA]3 [A,DA] [A,EA][A,CE] |[M:3/8] [G,B,E]3 | [E,B,E][E,B,E][F,B,E] | %16
[M:3/4] [G,B,E]3 [E,B,E] .[C,C][B,,B,] | [E,B,]4 .[A,,A,]2 | [B,,G,]3 [B,,B,] [B,,B,][B,,A,] | %19
[M:9/16] [E,G,]4- [E,G,]/ |] %20
V:3
 x6 | x3[K:treble] x3 | x6 | x6 |[M:3/8] x3 | x3 |[M:3/4][K:bass] x3[K:treble] x3 | x6 | %8
 z2 z2 B,,2 |[M:7/16] x7/2 |[M:3/8] x3 |[M:3/4] x6 | x6 | x6 |[M:3/8] x3 | x3 |[M:3/4] x6 | x6 | %18
 x6 |[M:9/16] x9/2 |] %20
V:4
 x6 | x6 | x6 | x6 |[M:3/8] x3 | x3 |[M:3/4] x6 | x6 | x6 |[M:7/16] x7/2 |[M:3/8] x3 |[M:3/4] x6 | %12
 x6 | x6 |[M:3/8] x3 | x3 |[M:3/4] z2 z2 .E2 | [EG]4 z[K:bass] [=A,,_G,] | x6 |[M:9/16] x9/2 |] %20

